src/Pure/16/symbolic/actions/format-indent-less-rtl-symbolic.svg

<?xml version="1.0" encoding="UTF-8" standalone="no"?>
<svg
   height="16"
   width="16"
   version="1.1"
   id="svg1"
   sodipodi:docname="format-indent-less-rtl-symbolic.svg"
   inkscape:version="1.4.2 (ebf0e940d0, 2025-05-08)"
   xmlns:inkscape="http://www.inkscape.org/namespaces/inkscape"
   xmlns:sodipodi="http://sodipodi.sourceforge.net/DTD/sodipodi-0.dtd"
   xmlns="http://www.w3.org/2000/svg"
   xmlns:svg="http://www.w3.org/2000/svg">
  <defs
     id="defs1">
    <style
       id="current-color-scheme"
       type="text/css">
        .ColorScheme-Text { color:#363636; }
     </style>
  </defs>
  <sodipodi:namedview
     id="namedview1"
     pagecolor="#ffffff"
     bordercolor="#000000"
     borderopacity="0.25"
     inkscape:showpageshadow="2"
     inkscape:pageopacity="0.0"
     inkscape:pagecheckerboard="0"
     inkscape:deskcolor="#d1d1d1"
     inkscape:zoom="49.6875"
     inkscape:cx="8"
     inkscape:cy="8"
     inkscape:window-width="1920"
     inkscape:window-height="1010"
     inkscape:window-x="0"
     inkscape:window-y="0"
     inkscape:window-maximized="1"
     inkscape:current-layer="svg1" />
  <path
     id="path1"
     style="fill:currentColor"
     class="ColorScheme-Text"
     d="M 1.0019531 1 L 1.0019531 2 L 15.001953 2 L 15.001953 1 L 1.0019531 1 z M 7.0019531 4 L 7.0019531 5 L 15.001953 5 L 15.001953 4 L 7.0019531 4 z M 1 5 L 1 10 L 6 7.5 L 1 5 z M 7.0019531 7 L 7.0019531 8 L 15.001953 8 L 15.001953 7 L 7.0019531 7 z M 7.0019531 10 L 7.0019531 11 L 15.001953 11 L 15.001953 10 L 7.0019531 10 z M 1.0019531 13 L 1.0019531 14 L 15.001953 14 L 15.001953 13 L 1.0019531 13 z " />
</svg>

<svg height="16" width="16" xmlns="http://www.w3.org/2000/svg"><g fill="#363636" color="#363636"><path style="marker:none" overflow="visible" d="M15.001 1h-14v1h14zM15.001 4h-8v1h8zM15.001 10h-8v1h8zM15.001 13h-14v1h14zM15.001 7h-8v1h8zM1 10V5c.761.348 1.535.737 2.324 1.166A44.8 44.8 0 0 1 5.583 7.5c-.725.449-1.479.889-2.26 1.32A43.18 43.18 0 0 1 1 10z"/></g></svg>
